X: 10191
T: 4. BOB JOHNSTONE'S REEL
C: A. W. Doig
R: reel
B: K\"ohler's Violin Repository, v.1, 1885 p.19 #1
F: http://www.archive.org/details/klersviolinrepos01edin
Z: 2011 John Chambers <jc:trillian.mit.edu>
M: C
L: 1/8
K: A
ue |\
aA A/A/A (EA)CA | A,AAB cdec | bB B/B/B ^ABFB | B,BBc defg |
aA A/A/A (EA)CA | A,AAB cdeg | a2(ec) dfed | cABG A2 (A ||
ud) |\
ceef (eA)(aA) | (cA)(aA) cdec | (Bb)ba (gb)eg | (fa/f/) (^df) edeg |
a>A A/A/A (cA)eA | GABc defg | a2(ec) dfed | cABG "_D.C. Fine."A2A |]

%%sep 2 1 500

